X: 1
T: The Pinch Of Snuff
R: reel
M: 4/4
L: 1/8
K: Dmix
fage d2dB|AD (3FED EFGB|A3B cGcd|ed (3B^cd efge:|
f2df afdf|f2df efge|f2df afdf|eA (3B^cd efge|
f2df afdf|f2df efge|fa~a2 afdf|eA (3B^cd efge||


Tune 2610	Setting 22163

